categories/32/applications-education-language.svg

<?xml version="1.0" encoding="UTF-8" standalone="no"?>
<svg
  width="32"
  height="32"
  version="1.1"
  viewBox="0 0 32 32"
  id="svg22"
  xmlns:xlink="http://www.w3.org/1999/xlink"
  xmlns="http://www.w3.org/2000/svg"
  xmlns:svg="http://www.w3.org/2000/svg">
 <style
   type="text/css"
   id="current-color-scheme">
  .ColorScheme-Highlight {
        color:#3daee9;
      }
      </style>
 <defs
   id="defs12">
  <linearGradient
    id="linearGradient7">
   <stop
     style="stop-color:#141618;stop-opacity:1;"
     offset="0"
     id="stop7" />
   <stop
     style="stop-color:#686868;stop-opacity:1;"
     offset="0.53189832"
     id="stop9" />
   <stop
     style="stop-color:#31363b;stop-opacity:1;"
     offset="1"
     id="stop8" />
  </linearGradient>
  <linearGradient
    xlink:href="#linearGradient3487"
    id="linearGradient3403"
    gradientUnits="userSpaceOnUse"
    x1="6.9491749"
    y1="4.5549412"
    x2="11.215498"
    y2="59.052471" />
  <linearGradient
    id="linearGradient3487">
   <stop
     style="stop-color:#32373c;stop-opacity:1"
     offset="0"
     id="stop3481" />
   <stop
     id="stop3483"
     offset="0.36804965"
     style="stop-color:#1a1a1a;stop-opacity:1" />
   <stop
     style="stop-color:#31363b;stop-opacity:1"
     offset="1"
     id="stop3485" />
  </linearGradient>
  <linearGradient
    xlink:href="#linearGradient20604"
    id="linearGradient20558"
    gradientUnits="userSpaceOnUse"
    x1="25.802212"
    y1="20.373846"
    x2="25.111048"
    y2="58.912758" />
  <linearGradient
    id="linearGradient20604">
   <stop
     id="stop20598"
     offset="0"
     style="stop-color:#3d3d3d;stop-opacity:1" />
   <stop
     style="stop-color:#000000;stop-opacity:1"
     offset="0.61772454"
     id="stop20600" />
   <stop
     id="stop20602"
     offset="1"
     style="stop-color:#3d3d3d;stop-opacity:1" />
  </linearGradient>
  <filter
    style="color-interpolation-filters:sRGB"
    id="filter20720"
    x="-0.017154225"
    y="-0.016541574"
    width="1.0343069"
    height="1.0330831">
   <feGaussianBlur
     stdDeviation="0.14745661"
     id="feGaussianBlur20722" />
  </filter>
  <linearGradient
    xlink:href="#linearGradient7"
    id="linearGradient8"
    x1="17"
    y1="30"
    x2="17"
    y2="2"
    gradientUnits="userSpaceOnUse" />
  <linearGradient
    xlink:href="#linearGradient4273"
    id="linearGradient3085"
    y1="543.79797"
    x1="434.57144"
    y2="503.798"
    gradientUnits="userSpaceOnUse"
    x2="384.57144"
    gradientTransform="matrix(0.66666621,0,0,0.70000019,-256.38078,-350.65872)" />
  <linearGradient
    id="linearGradient4273">
   <stop
     style="stop-color:#343b40"
     id="stop4275" />
   <stop
     offset="1"
     style="stop-color:#555e63"
     id="stop4277" />
  </linearGradient>
  <linearGradient
    xlink:href="#linearGradient4152-0"
    id="linearGradient3087"
    y1="43.999973"
    y2="4.1917577"
    gradientUnits="userSpaceOnUse"
    x2="-1.9607389"
    gradientTransform="matrix(0.66666621,0,0,0.69999959,0,-0.8)" />
  <linearGradient
    id="linearGradient4152-0">
   <stop
     style="stop-color:#bd8d48"
     id="stop4154-0" />
   <stop
     offset="1"
     style="stop-color:#e8b971"
     id="stop4156-8" />
  </linearGradient>
 </defs>
 <rect
   width="25.341169"
   x="4.0612292"
   y="2.0000346"
   height="26.090137"
   style="display:inline;fill:url(#linearGradient3085);stroke-width:0.666666"
   id="rect4567"
   rx="0"
   ry="0" />
 <path
   style="color:#000000;display:inline;overflow:visible;visibility:visible;fill:#f2f2f2;fill-opacity:1;fill-rule:nonzero;stroke:none;stroke-width:2;marker:none;enable-background:accumulate"
   d="m 7,17.00002 v 1 1 1 2 h 1 2 v 1 H 5 v 1 h 5 v 2 h 1 v -2 h 5 v -1 h -5 v -1 h 3 v -1 -3 -1 H 13 8 Z m 1,1 h 5 v 1 H 8 Z m 0,2 h 5 v 1 H 8 Z"
   id="rect3821" />
 <path
   id="path3867"
   style="font-style:normal;font-variant:normal;font-weight:normal;font-stretch:normal;font-size:12.4686px;line-height:125%;font-family:Oxygen;-inkscape-font-specification:Oxygen;letter-spacing:0px;word-spacing:0px;fill:#f2f2f2;fill-opacity:1;stroke:none"
   d="M 11.97095,11.07174 C 11.11238,8.58997 10.58953,7.30772 10.50001,7.00003 10.5,7.00004 10.05444,8.28228 9.06567,11.07174 h 2.90528 m 1.39771,3.92825 -1.05591,-3.04769 H 8.71167 L 7.61914,14.99999 H 6.54492 l 3.46679,-8.99997 h 1.08033 l 3.36305,8.99997 h -1.08644" />
 <g
   style="font-style:normal;font-weight:normal;font-size:12.3456px;line-height:125%;font-family:Sans;letter-spacing:0px;word-spacing:0px;fill:#f2f2f2;fill-opacity:1;stroke:none"
   id="text3876"
   transform="translate(-379.57143,-515.79795)">
  <path
    d="m 399.57143,526.80011 v 2.99719 h 2.17081 c 0.65505,0 1.13931,-0.13463 1.45278,-0.40389 0.31748,-0.27327 0.47622,-0.68921 0.47622,-1.24782 0,-0.56263 -0.15874,-0.67635 -0.47622,-0.9416 -0.31347,-0.26925 -0.79773,-0.40388 -1.45278,-0.40389 h -2.17081 m 0,-4.00148 v 3.01287 h 2.21988 c 0.59476,0 1.07073,-0.11051 1.36009,-0.33155 0.29336,-0.22505 0.44004,-0.86684 0.44006,-1.32499 -10e-6,-0.45411 -0.14669,-0.7937 -0.44006,-1.01875 -0.28936,-0.22505 -0.76533,-0.33757 -1.36009,-0.33758 h -2.21988 m -1,-1.00067 h 3.11052 c 0.92833,10e-6 1.64367,0.19291 2.14603,0.5787 0.50233,0.38581 0.75351,0.93437 0.75351,1.64568 0,0.55058 -0.1286,1.28883 -0.3858,1.61434 -0.25721,0.32553 -0.63497,0.52847 -1.13329,0.60884 1.24701,0.30952 1.86472,1.17136 1.89284,2.0327 -1e-5,0.80375 -0.27328,1.42465 -0.81983,1.8627 -0.54656,0.43804 -1.32419,0.65706 -2.33289,0.65706 h -3.23109 v -9.00002"
    style="fill:#f2f2f2;fill-opacity:1"
    id="path3881" />
 </g>
 <path
   style="color:#000000;display:inline;overflow:visible;visibility:visible;fill:#f2f2f2;fill-opacity:1;fill-rule:nonzero;stroke:none;stroke-width:2;marker:none;enable-background:accumulate"
   d="m 22,17.00002 v 8 h -4 v 1 h 9 v -1 h -4 v -5 h 4 v -1 h -4 v -2 z"
   id="rect3883" />
 <path
   id="rect4778"
   style="display:inline;fill:url(#linearGradient3087);stroke-width:0.666666"
   d="M 4.0612294,4 H 28.287109 v 23.914062 l -24.2258796,0.008 V 30.008 L 28.892071,30.0004 30.287109,28.412085 V 3.4003906 L 28.953125,2 H 4.0612294 Z" />
 <path
   id="rect4553"
   style="color:#000000;display:inline;fill:#aa7f41;fill-opacity:0.498039;stroke-width:0.666666"
   d="M 4.0605469,4 V 4.9550781 H 27.378906 V 27 H 4.0605469 v 0.914062 H 28.287109 V 4 Z" />
 <rect
   width="3.9999599"
   x="19.000011"
   y="26.000034"
   height="0.99998999"
   class="ColorScheme-Highlight"
   fill="currentColor"
   id="rect4568"
   style="display:inline" />
 <rect
   width="3.9999881"
   x="23.999981"
   y="26.000034"
   height="1.00001"
   style="color:#000000;display:inline;fill:#d6d6d6;stroke-width:0.666666"
   id="rect4570" />
 <path
   style="display:inline;mix-blend-mode:normal;fill:url(#linearGradient3403);fill-opacity:1;stroke:url(#linearGradient20558);stroke-width:1.16242;stroke-linecap:butt;stroke-linejoin:round;stroke-miterlimit:4;stroke-dasharray:none;stroke-opacity:1;filter:url(#filter20720)"
   d="M 5.4025265,3.5689324 V 60.09958 H 57.895271 l 2.018951,-2.018952 c 0,0 -24.171977,0.621351 -33.141048,-4.285423 C 16.257548,48.042344 11.459382,3.5689324 11.459382,3.5689324 Z"
   id="path1686"
   transform="matrix(0.49530655,0,0,0.49530655,0.32409325,0.23228439)" />
 <path
   id="rect5"
   style="display:inline;opacity:1;fill:url(#linearGradient8);stroke-width:0.226"
   d="M 5,1 C 1,1 1,5 1,5 v 21 c 0,5 4,5 4,5 h 22 c 0,0 4,0 4,-4 V 5 c 0,0 0,-4 -4,-4 z m 0,2 h 22 c 2,0 2,2 2,2 v 22 c 0,2 -2,2 -2,2 H 5 C 5,29 3,29 3,26 V 5 C 3,5 3,3 5,3 Z" />
</svg>

<svg width="32" height="32" version="1.1" viewBox="0 0 32 32" xmlns="http://www.w3.org/2000/svg" xmlns:xlink="http://www.w3.org/1999/xlink">
<style id="current-color-scheme" type="text/css">.ColorScheme-Highlight {
        color:#3daee9;
      }</style>
<defs>
<linearGradient id="linearGradient3403" x1="6.9492" x2="11.215" y1="4.5549" y2="59.052" gradientUnits="userSpaceOnUse">
<stop style="stop-color:#32373c" offset="0"/>
<stop style="stop-color:#1a1a1a" offset=".36805"/>
<stop style="stop-color:#31363b" offset="1"/>
</linearGradient>
<linearGradient id="linearGradient20558" x1="25.802" x2="25.111" y1="20.374" y2="58.913" gradientUnits="userSpaceOnUse">
<stop style="stop-color:#3d3d3d" offset="0"/>
<stop offset=".61772"/>
<stop style="stop-color:#3d3d3d" offset="1"/>
</linearGradient>
<linearGradient id="linearGradient8" x1="17" x2="17" y1="30" y2="2" gradientUnits="userSpaceOnUse">
<stop style="stop-color:#141618" offset="0"/>
<stop style="stop-color:#686868" offset=".5319"/>
<stop style="stop-color:#31363b" offset="1"/>
</linearGradient>
<linearGradient id="linearGradient3085" x1="434.57" x2="384.57" y1="543.8" y2="503.8" gradientTransform="matrix(.66667 0 0 .7 -256.38 -350.66)" gradientUnits="userSpaceOnUse">
<stop style="stop-color:#343b40" offset="0"/>
<stop style="stop-color:#555e63" offset="1"/>
</linearGradient>
<linearGradient id="linearGradient3087" x2="-1.9607" y1="44" y2="4.1918" gradientTransform="matrix(.66667 0 0 .7 0 -.8)" gradientUnits="userSpaceOnUse">
<stop style="stop-color:#bd8d48" offset="0"/>
<stop style="stop-color:#e8b971" offset="1"/>
</linearGradient>
</defs>
<rect x="4.0612" y="2" width="25.341" height="26.09" rx="0" ry="0" style="fill:url(#linearGradient3085);stroke-width:.66667"/>
<path d="m7 17v1 1 1 2h1 2v1h-5v1h5v2h1v-2h5v-1h-5v-1h3v-1-3-1h-1-5zm1 1h5v1h-5zm0 2h5v1h-5z" style="color:#000000;fill:#f2f2f2"/>
<path d="m11.971 11.072c-0.85857-2.4818-1.3814-3.764-1.4709-4.0717-1e-5 1e-5 -0.44557 1.2822-1.4343 4.0717h2.9053m1.3977 3.9282-1.0559-3.0477h-3.6011l-1.0925 3.0477h-1.0742l3.4668-9h1.0803l3.363 9h-1.0864" style="fill:#f2f2f2"/>
<g transform="translate(-379.57 -515.8)" style="fill:#f2f2f2">
<path d="m399.57 526.8v2.9972h2.1708c0.65505 0 1.1393-0.13463 1.4528-0.40389 0.31748-0.27327 0.47622-0.68921 0.47622-1.2478 0-0.56263-0.15874-0.67635-0.47622-0.9416-0.31347-0.26925-0.79773-0.40388-1.4528-0.40389h-2.1708m0-4.0015v3.0129h2.2199c0.59476 0 1.0707-0.11051 1.3601-0.33155 0.29336-0.22505 0.44004-0.86684 0.44006-1.325-1e-5 -0.45411-0.14669-0.7937-0.44006-1.0188-0.28936-0.22505-0.76533-0.33757-1.3601-0.33758h-2.2199m-1-1.0007h3.1105c0.92833 1e-5 1.6437 0.19291 2.146 0.5787 0.50233 0.38581 0.75351 0.93437 0.75351 1.6457 0 0.55058-0.1286 1.2888-0.3858 1.6143-0.25721 0.32553-0.63497 0.52847-1.1333 0.60884 1.247 0.30952 1.8647 1.1714 1.8928 2.0327-1e-5 0.80375-0.27328 1.4246-0.81983 1.8627-0.54656 0.43804-1.3242 0.65706-2.3329 0.65706h-3.2311v-9" style="fill:#f2f2f2"/>
</g>
<path d="m22 17v8h-4v1h9v-1h-4v-5h4v-1h-4v-2z" style="color:#000000;fill:#f2f2f2"/>
<path d="m4.0612 4h24.226v23.914l-24.226 8e-3v2.0859l24.831-0.0076 1.395-1.5883v-25.012l-1.334-1.4004h-24.892z" style="fill:url(#linearGradient3087);stroke-width:.66667"/>
<path d="m4.0605 4v0.95508h23.318v22.045h-23.318v0.91406h24.227v-23.914z" style="color:#000000;fill-opacity:.49804;fill:#aa7f41;stroke-width:.66667"/>
<rect class="ColorScheme-Highlight" x="19" y="26" width="4" height=".99999" fill="currentColor"/>
<rect x="24" y="26" width="4" height="1" style="color:#000000;fill:#d6d6d6;stroke-width:.66667"/>
<path transform="matrix(.49531 0 0 .49531 .32409 .23228)" d="m5.4025 3.5689v56.531h52.493l2.019-2.019s-24.172 0.62135-33.141-4.2854c-10.516-5.7529-15.314-50.226-15.314-50.226z" style="fill:url(#linearGradient3403);mix-blend-mode:normal;stroke-linejoin:round;stroke-width:1.1624;stroke:url(#linearGradient20558)"/>
<path d="m5 1c-4 0-4 4-4 4v21c0 5 4 5 4 5h22s4 0 4-4v-22s0-4-4-4zm0 2h22c2 0 2 2 2 2v22c0 2-2 2-2 2h-22s-2 0-2-3v-21s0-2 2-2z" style="fill:url(#linearGradient8);stroke-width:.226"/>
</svg>
